X:1
T: Goat Fell
C:
R:Strathspey
Q: 128
K:C
M:4/4
L:1/16
|:c3d e3d cA3 Ac3|G3E C3E G4-G2A2|c3d e3c de3 cG3|ABcB AGFE D4 D2G2|
c3d e3d cA3 Ac3|G3E C3E G4 c2d2|efgd edcB cG3 G3c|ABcB AGFE D4-D2e2|
c3d e3f ge3 e3f|g3e agfe g4-g2e2|c3d e3f ge3 e3g|f3a ge3 d4-d2e2|
c3d e3f ge3 e3f|g3e agfe g4-g2a2|agfe fedc edcB cBAG|ABcB AGFE D4-D2:|
